src/lib/packages/icons/src/assets/line/alarm-minus.svg

<svg width="24" height="24" viewBox="0 0 24 24" fill="none" xmlns="http://www.w3.org/2000/svg">
<path d="M21.5359 5.52505C21.3889 5.67505 21.194 5.75002 21 5.75002C20.811 5.75002 20.6211 5.67903 20.4751 5.53603L18.4751 3.57607C18.1801 3.28607 18.1751 2.81104 18.4641 2.51504C18.7551 2.21904 19.2289 2.21405 19.5259 2.50405L21.5259 4.46401C21.8199 4.75401 21.8249 5.22905 21.5359 5.52505ZM5.53005 3.53005C5.82305 3.23705 5.82305 2.76202 5.53005 2.46902C5.23705 2.17602 4.76202 2.17602 4.46902 2.46902L2.46902 4.46902C2.17602 4.76202 2.17602 5.23705 2.46902 5.53005C2.61502 5.67605 2.80705 5.75002 2.99905 5.75002C3.19105 5.75002 3.38308 5.67705 3.52908 5.53005L5.53005 3.53005ZM17.096 19.0691L18.491 20.471C18.784 20.765 18.782 21.24 18.489 21.532C18.343 21.678 18.151 21.75 17.96 21.75C17.768 21.75 17.575 21.6761 17.429 21.5291L15.772 19.864C14.618 20.426 13.328 20.75 11.96 20.75C10.592 20.75 9.30297 20.426 8.14797 19.864L6.49099 21.5291C6.34499 21.6761 6.15198 21.75 5.95998 21.75C5.76898 21.75 5.57693 21.677 5.43093 21.532C5.13793 21.24 5.13598 20.765 5.42898 20.471L6.824 19.0691C4.639 17.4771 3.20998 14.905 3.20998 12C3.20998 7.17502 7.13498 3.25002 11.96 3.25002C16.785 3.25002 20.71 7.17502 20.71 12C20.71 14.905 19.281 17.4771 17.096 19.0691ZM11.96 19.25C15.958 19.25 19.21 15.998 19.21 12C19.21 8.00202 15.958 4.75002 11.96 4.75002C7.96198 4.75002 4.70998 8.00202 4.70998 12C4.70998 15.998 7.96198 19.25 11.96 19.25ZM14.5 11.25H9.50002C9.08602 11.25 8.75002 11.586 8.75002 12C8.75002 12.414 9.08602 12.75 9.50002 12.75H14.5C14.914 12.75 15.25 12.414 15.25 12C15.25 11.586 14.914 11.25 14.5 11.25Z" fill="currentColor"/>
</svg>

<svg xmlns="http://www.w3.org/2000/svg" width="24" height="24" fill="none"><path fill="currentColor" d="M21.536 5.525a.749.749 0 0 1-1.06.011l-2-1.96a.751.751 0 0 1 1.05-1.072l2 1.96c.294.29.299.765.01 1.061ZM5.53 3.53a.75.75 0 1 0-1.061-1.061l-2 2a.75.75 0 0 0 1.06 1.061l2.001-2Zm11.566 15.54 1.395 1.401a.75.75 0 0 1-1.062 1.058l-1.657-1.665a8.678 8.678 0 0 1-3.812.886 8.681 8.681 0 0 1-3.812-.886l-1.657 1.665a.747.747 0 0 1-1.06.003.75.75 0 0 1-.002-1.061l1.395-1.402C4.639 17.477 3.21 14.905 3.21 12c0-4.825 3.925-8.75 8.75-8.75s8.75 3.925 8.75 8.75c0 2.905-1.429 5.477-3.614 7.07Zm-5.136.18c3.998 0 7.25-3.252 7.25-7.25s-3.252-7.25-7.25-7.25S4.71 8.002 4.71 12s3.252 7.25 7.25 7.25Zm2.54-8h-5a.75.75 0 0 0 0 1.5h5a.75.75 0 0 0 0-1.5Z"/></svg>
